images/github-social.svg

<svg width="60" height="60" xmlns="http://www.w3.org/2000/svg"><path d="M17.543 30.568c-.054 0 .592 1.367.61 1.367 1.41 2.516 4.128 4.08 8.713 4.514-.654.488-1.44 1.414-1.549 2.484-.823.523-2.478.696-3.764.297-1.803-.559-2.493-4.066-5.192-3.566-.584.107-.468.486.037.809.823.523 1.597 1.178 2.194 2.571.459 1.07 1.423 2.981 4.473 2.981 1.21 0 2.058-.143 2.058-.143s.023 2.731.023 3.793c0 1.225-1.682 1.57-1.682 2.159 0 .233.557.255 1.004.255.884 0 2.723-.725 2.723-1.998 0-1.011.017-4.41.017-5.006 0-1.3.709-1.712.709-1.712s.088 6.94-.169 7.872c-.302 1.094-.847.939-.847 1.427 0 .726 2.214.179 2.948-1.416.567-1.239.319-8.05.319-8.05l.605-.012s.034 3.117.013 4.542c-.021 1.476-.123 3.342.769 4.222.586.579 2.484 1.594 2.484.666 0-.539-1.04-.982-1.04-2.441v-6.715c.831 0 .706 2.208.706 2.208l.061 4.103s-.184 1.494 1.645 2.119c.645.223 2.025.283 2.09-.09.065-.373-1.662-.928-1.678-2.084-.01-.707.032-1.119.032-4.187 0-3.068-.419-4.202-1.88-5.106 4.508-.455 7.299-1.551 8.658-4.486.106.003.555-1.371.496-1.371.305-1.108.47-2.419.502-3.971-.008-4.21-2.058-5.699-2.451-6.398.58-3.187-.098-4.637-.412-5.135-1.162-.406-4.041 1.045-5.615 2.067-2.564-.737-7.986-.666-10.019.19-3.751-2.639-5.736-2.235-5.736-2.235s-1.283 2.259-.339 5.565c-1.234 1.546-2.154 2.64-2.154 5.539.001 1.634.197 3.096.638 4.372zM0 0h60v60H0V0z" fill="#010101" fill-rule="evenodd"/></svg>

<?xml version="1.0" encoding="UTF-8"?>
<svg width="60px" height="60px" viewBox="0 0 60 60" version="1.1" xmlns="http://www.w3.org/2000/svg" xmlns:xlink="http://www.w3.org/1999/xlink">
    <!-- Generator: Sketch 46.2 (44496) - http://www.bohemiancoding.com/sketch -->
    <title>github-social</title>
    <desc>Created with Sketch.</desc>
    <defs></defs>
    <g id="Page-1" stroke="none" stroke-width="1" fill="none" fill-rule="evenodd">
        <g id="github-social" fill="#010101">
            <path d="M17.543,30.568 C17.489,30.568 18.135,31.935 18.153,31.935 C19.563,34.451 22.281,36.015 26.866,36.449 C26.212,36.937 25.426,37.863 25.317,38.933 C24.494,39.456 22.839,39.629 21.553,39.23 C19.75,38.671 19.06,35.164 16.361,35.664 C15.777,35.771 15.893,36.15 16.398,36.473 C17.221,36.996 17.995,37.651 18.592,39.044 C19.051,40.114 20.015,42.025 23.065,42.025 C24.275,42.025 25.123,41.882 25.123,41.882 C25.123,41.882 25.146,44.613 25.146,45.675 C25.146,46.9 23.464,47.245 23.464,47.834 C23.464,48.067 24.021,48.089 24.468,48.089 C25.352,48.089 27.191,47.364 27.191,46.091 C27.191,45.08 27.208,41.681 27.208,41.085 C27.208,39.785 27.917,39.373 27.917,39.373 C27.917,39.373 28.005,46.313 27.748,47.245 C27.446,48.339 26.901,48.184 26.901,48.672 C26.901,49.398 29.115,48.851 29.849,47.256 C30.416,46.017 30.168,39.206 30.168,39.206 L30.773,39.194 C30.773,39.194 30.807,42.311 30.786,43.736 C30.765,45.212 30.663,47.078 31.555,47.958 C32.141,48.537 34.039,49.552 34.039,48.624 C34.039,48.085 32.999,47.642 32.999,46.183 L32.999,39.468 C33.83,39.468 33.705,41.676 33.705,41.676 L33.766,45.779 C33.766,45.779 33.582,47.273 35.411,47.898 C36.056,48.121 37.436,48.181 37.501,47.808 C37.566,47.435 35.839,46.88 35.823,45.724 C35.813,45.017 35.855,44.605 35.855,41.537 C35.855,38.469 35.436,37.335 33.975,36.431 C38.483,35.976 41.274,34.88 42.633,31.945 C42.739,31.948 43.188,30.574 43.129,30.574 C43.434,29.466 43.599,28.155 43.631,26.603 C43.623,22.393 41.573,20.904 41.18,20.205 C41.76,17.018 41.082,15.568 40.768,15.07 C39.606,14.664 36.727,16.115 35.153,17.137 C32.589,16.4 27.167,16.471 25.134,17.327 C21.383,14.688 19.398,15.092 19.398,15.092 C19.398,15.092 18.115,17.351 19.059,20.657 C17.825,22.203 16.905,23.297 16.905,26.196 C16.906,27.83 17.102,29.292 17.543,30.568 Z M0,0 L60,0 L60,60 L0,60 L0,0 Z" id="Shape"></path>
        </g>
    </g>
</svg>
